X: 40811
T: Traditional, The
R: jig
M: 6/8
K: Gmajor
|:e|dBG GFG|Bcd =fdB|cA=F FEF|C=FA({e}c)Bc|
dBG GFG|Bcd ^fga|gdB cAF|GAG G2:|
|:B|d2g gfg|bag bag|d2=f fef|ag=f agf|
d2g gfd|Bcd fga|gdB cAF|GAG G2:|

